images/search.svg

<svg width="20" height="20" viewBox="0 0 20 20" fill="none" xmlns="http://www.w3.org/2000/svg">
<path fill-rule="evenodd" clip-rule="evenodd" d="M4.16667 9.16667C4.16667 6.40917 6.40917 4.16667 9.16667 4.16667C11.9242 4.16667 14.1667 6.40917 14.1667 9.16667C14.1667 11.9242 11.9242 14.1667 9.16667 14.1667C6.40917 14.1667 4.16667 11.9242 4.16667 9.16667ZM17.2558 16.0775L14.4267 13.2475C15.3042 12.1192 15.8333 10.705 15.8333 9.16667C15.8333 5.49083 12.8425 2.5 9.16667 2.5C5.49083 2.5 2.5 5.49083 2.5 9.16667C2.5 12.8425 5.49083 15.8333 9.16667 15.8333C10.705 15.8333 12.1192 15.3042 13.2475 14.4267L16.0775 17.2558C16.24 17.4183 16.4533 17.5 16.6667 17.5C16.88 17.5 17.0933 17.4183 17.2558 17.2558C17.5817 16.93 17.5817 16.4033 17.2558 16.0775Z" fill="#8D8D8D"/>
<mask id="mask0_355_163" style="mask-type:luminance" maskUnits="userSpaceOnUse" x="2" y="2" width="16" height="16">
<path fill-rule="evenodd" clip-rule="evenodd" d="M4.16667 9.16667C4.16667 6.40917 6.40917 4.16667 9.16667 4.16667C11.9242 4.16667 14.1667 6.40917 14.1667 9.16667C14.1667 11.9242 11.9242 14.1667 9.16667 14.1667C6.40917 14.1667 4.16667 11.9242 4.16667 9.16667ZM17.2558 16.0775L14.4267 13.2475C15.3042 12.1192 15.8333 10.705 15.8333 9.16667C15.8333 5.49083 12.8425 2.5 9.16667 2.5C5.49083 2.5 2.5 5.49083 2.5 9.16667C2.5 12.8425 5.49083 15.8333 9.16667 15.8333C10.705 15.8333 12.1192 15.3042 13.2475 14.4267L16.0775 17.2558C16.24 17.4183 16.4533 17.5 16.6667 17.5C16.88 17.5 17.0933 17.4183 17.2558 17.2558C17.5817 16.93 17.5817 16.4033 17.2558 16.0775Z" fill="white"/>
</mask>
<g mask="url(#mask0_355_163)">
<rect width="20" height="20" fill="#8D8D8D"/>
</g>
</svg>

<svg xmlns="http://www.w3.org/2000/svg" width="20" height="20" fill="none"><path fill="#8D8D8D" fill-rule="evenodd" d="M4.167 9.167c0-2.758 2.242-5 5-5 2.757 0 5 2.242 5 5 0 2.757-2.243 5-5 5-2.758 0-5-2.243-5-5Zm13.089 6.91-2.83-2.83a6.626 6.626 0 0 0 1.407-4.08A6.674 6.674 0 0 0 9.167 2.5 6.674 6.674 0 0 0 2.5 9.167a6.674 6.674 0 0 0 6.667 6.666c1.538 0 2.952-.529 4.08-1.406l2.83 2.829a.831.831 0 0 0 1.179 0 .832.832 0 0 0 0-1.178Z" clip-rule="evenodd"/><mask id="a" width="16" height="16" x="2" y="2" maskUnits="userSpaceOnUse" style="mask-type:luminance"><path fill="#fff" fill-rule="evenodd" d="M4.167 9.167c0-2.758 2.242-5 5-5 2.757 0 5 2.242 5 5 0 2.757-2.243 5-5 5-2.758 0-5-2.243-5-5Zm13.089 6.91-2.83-2.83a6.626 6.626 0 0 0 1.407-4.08A6.674 6.674 0 0 0 9.167 2.5 6.674 6.674 0 0 0 2.5 9.167a6.674 6.674 0 0 0 6.667 6.666c1.538 0 2.952-.529 4.08-1.406l2.83 2.829a.831.831 0 0 0 1.179 0 .832.832 0 0 0 0-1.178Z" clip-rule="evenodd"/></mask><g mask="url(#a)"><path fill="#8D8D8D" d="M0 0h20v20H0z"/></g></svg>
